X: 36
M: 2/4
L: 1/16
K: G
V: 1
dBAG |\
ecBA BdBF | GDB,G, dBAG | ecBA BdBF | G2G,2 dBAG |\
ecBA BdBF | GDB,G, dBAG | ecBA BdBF | G4 :|
|: bgfe |\
afed ged^c | dAFD bgfe | afed ged^c | d2D2 dBce |\
dG,B,D GBAF | GgBc dBce | dG,B,D GBAF | G4 :|\
[K:Gm]
"Mineur"bag^f |\
gedc BAG^F | GDB,G, BGBd | e^FAc dDcB | A2D2 bag^f |\
gedc BAG^F | GDB,G, dGBd | e^FAc dcBA | G2G,2 :|
|: deff |\
ecBA dBA^F | G2G2 dBAG | ecBA dBA^F | G2G2 :|
V: 2 clef=bass middle=d
g4 |\
c4 d4 | G4 g4 | c4 d4 | G4 g4 | c4 d4 |
e4 | d4 g2c2 | B2G2B2d2 | g4 G2c2 | B2G2B2d2 | G4 :|\
[K:Gm]
"Mineur"g2a2 | b2c'2d'2d2 | g4 G4 | c4 B2AG | d4 g2a2 | b2c'2
d'2d2 | g4 G4 | c4 B2d2 | G4 :||: B4 | d2B2 d2f2 | B4 B4 |
d2B2 d2f2 | B4 b4 | c'4 d'2d2 | e4 B4 | c4 d2D2 | G4 :|


